usr/share/icons/biglinux-icons-material-dark/symbolic/actions/transform-crop-and-resize.svg

<svg xmlns="http://www.w3.org/2000/svg" viewBox="0 0 16 16">
<defs id="defs3051">
<style id="current-color-scheme" type="text/css">
.ColorScheme-Contrast{color:#dedede}
</style>
</defs>
<path d="M2 2v3h2v7h7v2h3v-3h-2V4.688l2-2L13.313 2l-2 2H5V2zm1 1h1v1H3zm2 2h5.313L5 10.313zm6 .688V11H5.688zM12 12h1v1h-1z" class="ColorScheme-Contrast" style="fill:currentColor;fill-opacity:1;stroke:none"/>
</svg>

<svg xmlns="http://www.w3.org/2000/svg" viewBox="0 0 16 16">
  <defs id="defs3051">
    <style type="text/css" id="current-color-scheme">
      .ColorScheme-Text {
        color:#dedede;
      }
      </style>
  </defs>
 <path style="fill:currentColor;fill-opacity:1;stroke:none" 
       d="M 2 2 L 2 4 L 2 5 L 4 5 L 4 11 L 4 12 L 5 12 L 11 12 L 11 14 L 12 14 L 14 14 L 14 12 L 14 11 L 12 11 L 12 5 L 12 4.6875 L 14 2.6875 L 13.3125 2 L 11.3125 4 L 11 4 L 5 4 L 5 2 L 4 2 L 2 2 z M 3 3 L 4 3 L 4 4 L 3 4 L 3 3 z M 5 5 L 10.3125 5 L 5 10.3125 L 5 5 z M 11 5.6875 L 11 11 L 5.6875 11 L 11 5.6875 z M 12 12 L 13 12 L 13 13 L 12 13 L 12 12 z "
     class="ColorScheme-Text"
     />
</svg>
